X:567
T:Lady round the Lady
C:from Northern Junket, October 1956
L:1/8
M:2/4
R:Reel
S:Colin Hume's website,  colinhume.com  - chords can also be printed below the stave.
Q:1/4=112
%%MIDI gchord fzczfzcz
K:F
FG | "F"AAAB | AF2G | Accd | c4 | "C7"GGGA | GE2F | GGFG | "F"A3B |
"F"c2f2 | "F7"c2A2 | "Bb"BABc | "Gm"d4 | "C"cded | cded | "C7"cBAG | "F"F2 |]

